X: 37327
T: Skylark's Ascension, The
R: jig
M: 6/8
K: Amajor
f|aaa faa|fee c2B|AAA A2B|cee e2c|
f3 fec|eff c2B|Aaa fec|e3 e2:|
f|a3 afe|fff f2e|c3 cff|ecB c2e|
a3 afe|fff f2e|Aaa fec|e3 e2:|
a|AAA A2c|ecB c2e|fff f2e|cfe c2B|
AAA A2B|cee c2B|Aaa fec|e3 e2:|
f|aAa fdf|eAa c3|dff cee|Acc B2e|
[1aAa fdf|eAa c2B|Aaa fec|e3 e2:|
[2a2f ecB|cfe c2B|Aaa fec|e3 e2||

